X:301
T:Sailor's Wife 
C:Trad, Sc.  
M:6/8
L:1/8
%% Q:3/8=112
K:Dm 
 |: DEF E2D | d2e f2g | agf edc | AdA GEC |
    DEF E2D | d2e f2g | afd ge^c | d3 z3 :|
 |: fga fga | fga agf | ecg ecg | efg gfe | 
    fga agf | efg gfe | afd ge^c | d3 d3 :|
%%text
%%text
